img/arrow-64.svg

<svg fill="none" height="14" viewBox="0 0 16 14" width="16" xmlns="http://www.w3.org/2000/svg"><path d="m15.668 7.60061c.3306-.33063.3306-.86668 0-1.19731l-5.3879-5.38791c-.33064-.330625-.8667-.330625-1.19732 0-.33063.33063-.33063.86669 0 1.19732l4.78922 4.78924-4.78922 4.78925c-.33063.3306-.33063.8667 0 1.1973.33062.3306.86668.3306 1.19732 0zm-14.1447-1.44528c-.46758 0-.846629.37904-.846629.84662s.379049.84663.846629.84663zm13.546 0h-13.546v1.69325h13.546z" fill="#0080ff"/></svg>

<svg width="16" height="14" viewBox="0 0 16 14" fill="none" xmlns="http://www.w3.org/2000/svg">
<path d="M15.668 7.60061C15.9986 7.26998 15.9986 6.73393 15.668 6.4033L10.2801 1.01539C9.94946 0.684765 9.4134 0.684765 9.08278 1.01539C8.75215 1.34602 8.75215 1.88208 9.08278 2.21271L13.872 7.00195L9.08278 11.7912C8.75215 12.1218 8.75215 12.6579 9.08278 12.9885C9.4134 13.3191 9.94946 13.3191 10.2801 12.9885L15.668 7.60061ZM1.5233 6.15533C1.05572 6.15533 0.676671 6.53437 0.676671 7.00195C0.676671 7.46953 1.05572 7.84858 1.5233 7.84858V6.15533ZM15.0693 6.15533L1.5233 6.15533V7.84858L15.0693 7.84858V6.15533Z" fill="#0080FF"/>
</svg>
